X:31
T:York & Lenox. JMP.031
M:2/4
L:1/8
Q:1/2=80
C:â€33â€
S:John Miller MS. Perth, 1799.(for the fife)
R:.March
O:Scotland
A:Perth
H:1799
Z:vmp.C. Graebe
Z:vmp.C. Graebe
K:D major
â€œ_Key Gmaj in MSâ€DFAF | dFAF | efge | dcBA |\
(D/E/F/G/) AF | dFAF |!
GEAG | FD D ::\
f | fdfd | gege | cABc | (d/c/d/e/) d>g |!
fdfd | gege | cABc | d2d2 ::defd | cB â€œtrâ€B2 |!
ABAG | GF â€œtrâ€F2 | defd | BcdB |\
AF (A/G/F/E/) | D2D2 ğŸ˜

